src/assets/images/flags/austria.svg

<svg id="Layer_1" enable-background="new 0 0 512 512" viewBox="0 0 512 512" xmlns="http://www.w3.org/2000/svg"><path d="m496.077 345.043c10.291-27.732 15.923-57.729 15.923-89.043s-5.632-61.309-15.923-89.043l-240.077-22.261-240.077 22.261c-10.29 27.734-15.923 57.729-15.923 89.043s5.633 61.311 15.923 89.043l240.077 22.261z" fill="#f0f0f0"/><g fill="#d80027"><path d="m256 512c110.07 0 203.906-69.472 240.076-166.957h-480.154c36.172 97.485 130.006 166.957 240.078 166.957z"/><path d="m256 0c-110.072 0-203.906 69.472-240.078 166.957h480.155c-36.171-97.485-130.007-166.957-240.077-166.957z"/></g><g/><g/><g/><g/><g/><g/><g/><g/><g/><g/><g/><g/><g/><g/><g/></svg>

<?xml version="1.0" encoding="UTF-8" standalone="no"?>
<!DOCTYPE svg PUBLIC "-//W3C//DTD SVG 1.1//EN" "http://www.w3.org/Graphics/SVG/1.1/DTD/svg11.dtd">
<svg width="100%" height="100%" viewBox="0 0 512 512" version="1.1" xmlns="http://www.w3.org/2000/svg" xmlns:xlink="http://www.w3.org/1999/xlink" xml:space="preserve" xmlns:serif="http://www.serif.com/" style="fill-rule:evenodd;clip-rule:evenodd;stroke-linejoin:round;stroke-miterlimit:2;">
    <g>
        <g id="at">
            <path d="M496.077,345.043C506.368,317.311 512,287.314 512,256C512,224.686 506.368,194.691 496.077,166.957L256,144.696L15.923,166.957C5.633,194.691 0,224.686 0,256C0,287.314 5.633,317.311 15.923,345.043L256,367.304L496.077,345.043Z" style="fill:rgb(240,240,240);fill-rule:nonzero;"/>
            <path d="M256,512C366.07,512 459.906,442.528 496.076,345.043L15.922,345.043C52.094,442.528 145.928,512 256,512Z" style="fill:rgb(216,0,39);fill-rule:nonzero;"/>
            <path d="M256,0C145.928,0 52.094,69.472 15.922,166.957L496.077,166.957C459.906,69.472 366.07,0 256,0Z" style="fill:rgb(216,0,39);fill-rule:nonzero;"/>
        </g>
        <g id="de">
        </g>
        <path d="M256,144.696L256,367.304L496.077,345.043C506.368,317.311 512,287.314 512,256C512,224.686 506.368,194.691 496.077,166.957L256,144.696Z" style="fill:rgb(241,0,0);fill-rule:nonzero;"/>
        <path d="M256,0L256,166.957L496.077,166.957C459.906,69.472 366.07,0 256,0Z" style="fill-rule:nonzero;"/>
        <path d="M256,345.043L256,512C366.07,512 459.906,442.528 496.076,345.043L256,345.043Z" style="fill:rgb(255,205,0);fill-rule:nonzero;"/>
    </g>
</svg>
